icons-rebrand/svg/active-speaker-alert-regular.svg

<svg width="32" height="32" viewBox="0 0 32 32" fill="none" xmlns="http://www.w3.org/2000/svg">
<path d="M9 13.6919C8.80109 13.6919 8.61032 13.7709 8.46967 13.9116C8.32902 14.0522 8.25 14.243 8.25 14.4419V15.7499C8.25 15.9488 8.32902 16.1396 8.46967 16.2802C8.61032 16.4209 8.80109 16.4999 9 16.4999C9.19891 16.4999 9.38968 16.4209 9.53033 16.2802C9.67098 16.1396 9.75 15.9488 9.75 15.7499V14.4419C9.75 14.243 9.67098 14.0522 9.53033 13.9116C9.38968 13.7709 9.19891 13.6919 9 13.6919ZM9 18.9999C9.19891 18.9999 9.38968 18.9209 9.53033 18.7802C9.67098 18.6396 9.75 18.4488 9.75 18.2499C9.75 18.051 9.67098 17.8602 9.53033 17.7196C9.38968 17.5789 9.19891 17.4999 9 17.4999C8.80109 17.4999 8.61032 17.5789 8.46967 17.7196C8.32902 17.8602 8.25 18.051 8.25 18.2499C8.25 18.4488 8.32902 18.6396 8.46967 18.7802C8.61032 18.9209 8.80109 18.9999 9 18.9999Z" fill="#0F0F0F"/>
<path d="M10.5342 10.13L10.5252 10.116C10.3704 9.8509 10.1486 9.63117 9.88203 9.47889C9.61545 9.3266 9.3135 9.24713 9.00649 9.24845C8.69949 9.24977 8.39823 9.33183 8.13297 9.48639C7.8677 9.64095 7.64777 9.86258 7.49524 10.129L2.48924 19.118C2.33433 19.3841 2.25232 19.6863 2.25147 19.9942C2.25062 20.3021 2.33097 20.6047 2.48441 20.8717C2.63785 21.1386 2.85896 21.3603 3.12544 21.5146C3.39193 21.6688 3.69436 21.75 4.00224 21.75H14.0002C14.3068 21.7501 14.608 21.6697 14.8736 21.5167C15.1393 21.3638 15.3602 21.1438 15.5141 20.8787C15.668 20.6136 15.7496 20.3127 15.7507 20.0062C15.7517 19.6996 15.6723 19.3982 15.5202 19.132L10.5342 10.13ZM14.2162 20.124C14.1951 20.1627 14.1638 20.1949 14.1258 20.2171C14.0877 20.2393 14.0443 20.2507 14.0002 20.25H4.00224C3.95809 20.2511 3.9145 20.24 3.87623 20.2179C3.83796 20.1959 3.80649 20.1637 3.78524 20.125C3.76168 20.0847 3.74994 20.0386 3.75136 19.9919C3.75277 19.9452 3.76729 19.8998 3.79324 19.861L8.79724 10.871C8.81903 10.8335 8.8502 10.8023 8.8877 10.7805C8.9252 10.7587 8.96772 10.747 9.0111 10.7466C9.05448 10.7462 9.09722 10.7571 9.13512 10.7782C9.17301 10.7993 9.20476 10.8299 9.22724 10.867L14.2152 19.874C14.2384 19.9116 14.2507 19.9548 14.2509 19.9989C14.251 20.043 14.2391 20.0863 14.2162 20.124ZM24.0002 28.75C23.8515 28.7503 23.706 28.7063 23.5823 28.6237C23.4586 28.541 23.3622 28.4235 23.3055 28.2859C23.2488 28.1484 23.2343 27.9971 23.2638 27.8513C23.2933 27.7054 23.3655 27.5717 23.4712 27.467C24.9867 25.9664 26.1898 24.1802 27.0108 22.2118C27.8318 20.2434 28.2545 18.1318 28.2545 15.999C28.2545 13.8663 27.8318 11.7546 27.0108 9.78624C26.1898 7.81783 24.9867 6.03168 23.4712 4.53102C23.3301 4.39072 23.2506 4.20012 23.25 4.00114C23.2494 3.80217 23.3279 3.61112 23.4682 3.47002C23.6085 3.32893 23.7991 3.24934 23.9981 3.24878C24.1971 3.24822 24.3881 3.32672 24.5292 3.46702C26.1853 5.10695 27.4999 7.05887 28.3971 9.20994C29.2942 11.361 29.7561 13.6686 29.756 15.9992C29.7559 18.3299 29.2938 20.6374 28.3965 22.7884C27.4992 24.9394 26.1845 26.8912 24.5282 28.531C24.459 28.6005 24.3767 28.6556 24.2861 28.6932C24.1955 28.7308 24.0983 28.7501 24.0002 28.75Z" fill="#0F0F0F"/>
<path d="M20.5002 25.7501C20.3536 25.7502 20.2102 25.7074 20.0877 25.6269C19.9651 25.5465 19.8689 25.4319 19.8108 25.2973C19.7527 25.1627 19.7353 25.014 19.7608 24.8697C19.7863 24.7253 19.8535 24.5916 19.9542 24.4851C20.2462 24.1751 20.5202 23.8501 20.7752 23.5101C21.4292 22.6411 21.9637 21.6883 22.3642 20.6771C23.5451 17.6705 23.5451 14.3286 22.3642 11.3221C21.805 9.91319 20.9873 8.62131 19.9532 7.51307C19.8505 7.40521 19.7822 7.2692 19.7572 7.12238C19.7322 6.97557 19.7515 6.82464 19.8127 6.68886C19.8739 6.55308 19.9742 6.43862 20.1007 6.36011C20.2273 6.28159 20.3743 6.24258 20.5232 6.24807C20.6217 6.25141 20.7186 6.27416 20.8084 6.31499C20.8981 6.35583 20.9789 6.41397 21.0462 6.48607C21.3712 6.83207 21.6762 7.19507 21.9622 7.57307C22.7022 8.55307 23.3052 9.62807 23.7582 10.7681C25.0798 14.1305 25.0798 17.8686 23.7582 21.2311C23.3077 22.3666 22.7074 23.4367 21.9732 24.4131C21.6852 24.7971 21.3752 25.1651 21.0452 25.5141C20.9752 25.5884 20.8907 25.6477 20.797 25.6883C20.7033 25.7289 20.6023 25.7499 20.5002 25.7501Z" fill="#0F0F0F"/>
</svg>

<svg width="32" height="32" viewBox="0 0 32 32" fill="none" xmlns="http://www.w3.org/2000/svg"><path d="M9 13.692a.75.75 0 0 0-.75.75v1.308a.75.75 0 0 0 1.5 0v-1.308a.75.75 0 0 0-.75-.75zM9 19a.75.75 0 1 0 0-1.5.75.75 0 0 0 0 1.5z" fill="#0F0F0F"/><path d="M10.534 10.13l-.009-.014a1.75 1.75 0 0 0-3.03.013l-5.006 8.989a1.751 1.751 0 0 0 1.513 2.632H14a1.75 1.75 0 0 0 1.52-2.618l-4.986-9.002zm3.682 9.994a.242.242 0 0 1-.216.126H4.002a.241.241 0 0 1-.217-.125.249.249 0 0 1 .008-.264l5.004-8.99a.25.25 0 0 1 .43-.004l4.988 9.007a.24.24 0 0 1 .001.25zM24 28.75a.75.75 0 0 1-.529-1.283 16.139 16.139 0 0 0 0-22.936.75.75 0 0 1 1.058-1.064 17.636 17.636 0 0 1-.001 25.064.745.745 0 0 1-.528.219z" fill="#0F0F0F"/><path d="M20.5 25.75a.75.75 0 0 1-.546-1.265c.292-.31.566-.635.821-.975a12.15 12.15 0 0 0 1.589-2.833 12.794 12.794 0 0 0 0-9.355 12.156 12.156 0 0 0-2.411-3.809.749.749 0 0 1 .57-1.265.75.75 0 0 1 .523.238c.325.346.63.709.916 1.087.74.98 1.343 2.055 1.796 3.195a14.301 14.301 0 0 1 0 10.463 13.699 13.699 0 0 1-1.785 3.182c-.288.384-.598.752-.928 1.101a.75.75 0 0 1-.545.236z" fill="#0F0F0F"/></svg>
